storage/app/icons/phosphoricons/duotone/eject-duotone.svg

<svg xmlns="http://www.w3.org/2000/svg" fill="currentColor" viewBox="0 0 256 256"><path d="M216 168v24a8 8 0 0 1-8 8H48a8 8 0 0 1-8-8v-24a8 8 0 0 1 8-8h160a8 8 0 0 1 8 8M48.23 128h159.54c7.16 0 10.89-8.27 6-13.37l-73.74-77.5a16.76 16.76 0 0 0-24.14 0l-73.74 77.5c-4.81 5.1-1.08 13.37 6.08 13.37" opacity=".2"/><path d="M208 152H48a16 16 0 0 0-16 16v24a16 16 0 0 0 16 16h160a16 16 0 0 0 16-16v-24a16 16 0 0 0-16-16m0 40H48v-24h160ZM48.24 136h159.52a16.18 16.18 0 0 0 14.93-9.76 15.59 15.59 0 0 0-3.1-17.12l-73.73-77.51a24.76 24.76 0 0 0-35.72 0l-73.73 77.51a15.59 15.59 0 0 0-3.1 17.12A16.18 16.18 0 0 0 48.24 136m73.49-93.36a8.77 8.77 0 0 1 12.54 0L207.85 120H48.14Z"/></svg>

<svg xmlns="http://www.w3.org/2000/svg" viewBox="0 0 256 256" fill="currentColor"><path d="M216,168v24a8,8,0,0,1-8,8H48a8,8,0,0,1-8-8V168a8,8,0,0,1,8-8H208A8,8,0,0,1,216,168ZM48.23,128H207.77c7.16,0,10.89-8.27,6-13.37l-73.74-77.5a16.76,16.76,0,0,0-24.14,0l-73.74,77.5C37.34,119.73,41.07,128,48.23,128Z" opacity="0.2"/><path d="M208,152H48a16,16,0,0,0-16,16v24a16,16,0,0,0,16,16H208a16,16,0,0,0,16-16V168A16,16,0,0,0,208,152Zm0,40H48V168H208ZM48.24,136H207.76a16.18,16.18,0,0,0,14.93-9.76,15.59,15.59,0,0,0-3.1-17.12L145.86,31.61a24.76,24.76,0,0,0-35.72,0L36.41,109.12h0a15.59,15.59,0,0,0-3.1,17.12A16.18,16.18,0,0,0,48.24,136Zm73.49-93.36a8.77,8.77,0,0,1,12.54,0L207.85,120H48.14Z"/></svg>
